svg/sg.svg

<?xml version="1.0" encoding="UTF-8"?>
<svg xmlns="http://www.w3.org/2000/svg" xmlns:xlink="http://www.w3.org/1999/xlink" width="4320" height="2880">
<rect fill="#ed2939" width="4320" height="1440"/>
<rect fill="#fff" y="1440" width="4320" height="1440"/>  
<path fill="#fff" d="M 1481.678,720 A 541.5,541.5 0 1 1 398.67798,720 A 541.5,541.5 0 1 1 1481.678,720 z"/>
<path fill="#ed2939" d="M 1651.835,720 A 511.73499,511.73499 0 1 1 628.36499,720 A 511.73499,511.73499 0 1 1 1651.835,720 z"/>
<path fill="#fff" id="star" d="M 1007.1951,733.06439 L 933.63466,676.63425 L 860.09279,733.09117 L 888.40587,642.09687 L 814.61147,586.0053 L 905.6704,586.1981 L 933.6049,495.07467 L 961.56934,586.18798 L 1052.6282,585.96246 L 978.8522,642.0808 L 1007.1951,733.06439 z"/>
<use xlink:href="#star" transform="translate(577.18853,0)"/>
<use xlink:href="#star" transform="translate(288.88853,-214.21117)"/>
<use xlink:href="#star" transform="translate(107.99953,342.74883)"/>
<use xlink:href="#star" transform="translate(469.18853,342.74883)"/>
</svg>

<?xml version="1.0" encoding="UTF-8"?>
<svg width="4320" height="2880" xmlns="http://www.w3.org/2000/svg" xmlns:xlink="http://www.w3.org/1999/xlink">
  <rect width="4320" height="1440" fill="#ed2939"/>
  <rect y="1440" width="4320" height="1440" fill="#fff"/>
  <path d="m1481.7 720a541.5 541.5 0 1 1-1083 0 541.5 541.5 0 1 1 1083 0z" fill="#fff"/>
  <path d="m1651.8 720a511.73 511.73 0 1 1-1023.5 0 511.73 511.73 0 1 1 1023.5 0z" fill="#ed2939"/>
  <path id="star" d="m1007.2 733.06-73.56-56.43-73.542 56.457 28.313-90.994-73.794-56.092 91.059 0.1928 27.934-91.123 27.964 91.113 91.059-0.22552-73.776 56.118 28.343 90.984z" fill="#fff"/>
  <use transform="translate(577.19)" xlink:href="#star"/>
  <use transform="translate(288.89 -214.21)" xlink:href="#star"/>
  <use transform="translate(108 342.75)" xlink:href="#star"/>
  <use transform="translate(469.19 342.75)" xlink:href="#star"/>
</svg>
